svg/fluentui-system-icons/ic_fluent_arrow_move_20_regular.svg

<svg width="20" height="20" viewBox="0 0 20 20" fill="none" xmlns="http://www.w3.org/2000/svg">
<path d="M10.3536 2.14645C10.2598 2.05268 10.1326 2 10 2C9.86739 2 9.74021 2.05268 9.64645 2.14645L7.14645 4.64645C6.95118 4.84171 6.95118 5.15829 7.14645 5.35355C7.34171 5.54882 7.65829 5.54882 7.85355 5.35355L9.5 3.70711V7.5C9.5 7.77614 9.72386 8 10 8C10.2761 8 10.5 7.77614 10.5 7.5V3.70711L12.1464 5.35355C12.3417 5.54882 12.6583 5.54882 12.8536 5.35355C13.0488 5.15829 13.0488 4.84171 12.8536 4.64645L10.3536 2.14645ZM2.14645 9.64645C2.05268 9.74021 2 9.86739 2 10C2 10.1326 2.05268 10.2598 2.14645 10.3536L4.64645 12.8536C4.84171 13.0488 5.15829 13.0488 5.35355 12.8536C5.54882 12.6583 5.54882 12.3417 5.35355 12.1464L3.70711 10.5H7.5C7.77614 10.5 8 10.2761 8 10C8 9.72386 7.77614 9.5 7.5 9.5H3.70711L5.35355 7.85355C5.54882 7.65829 5.54882 7.34171 5.35355 7.14645C5.15829 6.95118 4.84171 6.95118 4.64645 7.14645L2.14645 9.64645ZM10 18C9.86739 18 9.74021 17.9473 9.64645 17.8536L7.14645 15.3536C6.95118 15.1583 6.95118 14.8417 7.14645 14.6464C7.34171 14.4512 7.65829 14.4512 7.85355 14.6464L9.5 16.2929L9.5 12.5C9.5 12.2239 9.72386 12 10 12C10.2761 12 10.5 12.2239 10.5 12.5V16.2929L12.1464 14.6464C12.3417 14.4512 12.6583 14.4512 12.8536 14.6464C13.0488 14.8417 13.0488 15.1583 12.8536 15.3536L10.3536 17.8536C10.2598 17.9473 10.1326 18 10 18ZM17.8536 10.3536C17.9473 10.2598 18 10.1326 18 10C18 9.86739 17.9473 9.74021 17.8536 9.64645L15.3536 7.14645C15.1583 6.95118 14.8417 6.95118 14.6464 7.14645C14.4512 7.34171 14.4512 7.65829 14.6464 7.85355L16.2929 9.5L12.5 9.5C12.2239 9.5 12 9.72386 12 10C12 10.2761 12.2239 10.5 12.5 10.5L16.2929 10.5L14.6464 12.1464C14.4512 12.3417 14.4512 12.6583 14.6464 12.8536C14.8417 13.0488 15.1583 13.0488 15.3536 12.8536L17.8536 10.3536Z" fill="#212121"/>
</svg>

<svg xmlns="http://www.w3.org/2000/svg" width="20" height="20"><path d="M10.354 2.146a.5.5 0 0 0-.708 0l-2.5 2.5a.5.5 0 1 0 .708.708L9.5 3.707V7.5a.5.5 0 0 0 1 0V3.707l1.646 1.647a.5.5 0 0 0 .708-.708l-2.5-2.5Zm-8.208 7.5a.5.5 0 0 0 0 .708l2.5 2.5a.5.5 0 0 0 .708-.708L3.707 10.5H7.5a.5.5 0 0 0 0-1H3.707l1.647-1.646a.5.5 0 1 0-.708-.708l-2.5 2.5ZM10 18a.5.5 0 0 1-.354-.146l-2.5-2.5a.5.5 0 0 1 .708-.708L9.5 16.293V12.5a.5.5 0 0 1 1 0v3.793l1.646-1.647a.5.5 0 0 1 .708.708l-2.5 2.5A.5.5 0 0 1 10 18Zm7.854-7.646a.5.5 0 0 0 0-.708l-2.5-2.5a.5.5 0 0 0-.708.708L16.293 9.5H12.5a.5.5 0 0 0 0 1h3.793l-1.647 1.646a.5.5 0 0 0 .708.708l2.5-2.5Z"/></svg>
